X:1
T: The Gardener's Daughter
C:
R:Reel
Q: 232
K:G
M:4/4
L:1/8
|:gf|eA AB GA Bd|eA Af gf gd|((3efg) dB GA Bc|dg fg ag fg|
eA AB GA Bd|eA Af gf gd|((3efg) dB GA Bc|((3dcB) gB A2:|
|:Bd|ea ag ef ge|d2 ef g2 fd|((3efg) dB GA Bc|dg fg ag fg|
ea ag ef ge|d2 ef g2 fd|((3efg) dB GA Bc|((3dcB) gB A2:|
